fa/signs-post.svg

<svg xmlns="http://www.w3.org/2000/svg" viewBox="0 0 512 512" height="1em" width="1em">
  <path d="M223.1 32c0-17.67 15.2-32 32-32C273.7 0 288 14.33 288 32h153.4c4.2 0 8.3 1.69 11.3 4.69l48 48c6.2 6.24 6.2 16.41 0 22.61l-48 48c-3 3-7.1 4.7-11.3 4.7H63.1c-16.77 0-32-14.3-32-32V64c0-17.67 15.23-32 32-32h160zM480 320c0 17.7-14.3 32-32 32H70.63c-4.25 0-8.32-1.7-11.32-4.7l-48-48c-6.245-6.2-6.245-16.4 0-22.6l48-48c3-3 7.07-5.6 11.32-5.6H223.1v-32H288v32h160c17.7 0 32 15.2 32 32V320zM255.1 512c-16.8 0-32-14.3-32-32v-96H288v96c0 17.7-14.3 32-32.9 32z"/>
</svg>

<svg xmlns="http://www.w3.org/2000/svg" viewBox="0 0 512 512" height="1em" width="1em">
  <path d="M223.1 32C223.1 14.33 238.3 0 255.1 0C273.7 0 288 14.33 288 32H441.4C445.6 32 449.7 33.69 452.7 36.69L500.7 84.69C506.9 90.93 506.9 101.1 500.7 107.3L452.7 155.3C449.7 158.3 445.6 160 441.4 160H63.1C46.33 160 31.1 145.7 31.1 128V64C31.1 46.33 46.33 32 63.1 32L223.1 32zM480 320C480 337.7 465.7 352 448 352H70.63C66.38 352 62.31 350.3 59.31 347.3L11.31 299.3C5.065 293.1 5.065 282.9 11.31 276.7L59.31 228.7C62.31 225.7 66.38 223.1 70.63 223.1H223.1V191.1H288V223.1H448C465.7 223.1 480 238.3 480 255.1V320zM255.1 512C238.3 512 223.1 497.7 223.1 480V384H288V480C288 497.7 273.7 512 255.1 512z"/>
</svg>
